static/css/archnavbar/bioarchlinux.svg

<?xml version="1.0" encoding="UTF-8" standalone="no"?>
<!-- Created with Inkscape (http://www.inkscape.org/) -->

<svg
   version="1.0"
   width="600"
   height="126"
   id="svg2424"
   sodipodi:docname="archlogo.svg"
   inkscape:version="0.92.1 r"
   xml:space="preserve"
   xmlns:inkscape="http://www.inkscape.org/namespaces/inkscape"
   xmlns:sodipodi="http://sodipodi.sourceforge.net/DTD/sodipodi-0.dtd"
   xmlns="http://www.w3.org/2000/svg"
   xmlns:svg="http://www.w3.org/2000/svg"
   xmlns:rdf="http://www.w3.org/1999/02/22-rdf-syntax-ns#"
   xmlns:cc="http://creativecommons.org/ns#"
   xmlns:dc="http://purl.org/dc/elements/1.1/"><metadata
     id="metadata114"><rdf:RDF><cc:Work
         rdf:about=""><dc:format>image/svg+xml</dc:format><dc:type
           rdf:resource="http://purl.org/dc/dcmitype/StillImage" /></cc:Work></rdf:RDF></metadata><sodipodi:namedview
     pagecolor="#ffffff"
     bordercolor="#666666"
     borderopacity="1"
     objecttolerance="10"
     gridtolerance="10"
     guidetolerance="10"
     inkscape:pageopacity="0"
     inkscape:pageshadow="2"
     inkscape:window-width="1362"
     inkscape:window-height="726"
     id="namedview112"
     showgrid="false"
     inkscape:zoom="2.015"
     inkscape:cx="335.62219"
     inkscape:cy="55.090984"
     inkscape:window-x="0"
     inkscape:window-y="16"
     inkscape:window-maximized="0"
     inkscape:current-layer="g2424"
     inkscape:showpageshadow="2"
     inkscape:pagecheckerboard="0"
     inkscape:deskcolor="#d1d1d1" /><defs
     id="defs2426"><rect
       x="153.20905"
       y="33.346687"
       width="441.45609"
       height="79.411255"
       id="rect444" /><rect
       x="156.87511"
       y="39.067451"
       width="359.5159"
       height="69.252228"
       id="rect438" /></defs><g
     transform="matrix(0.7,0,0,0.7,-37.866513,-100.53407)"
     id="layer1"><g
       transform="matrix(0.8746356,0,0,0.8746356,14.730518,23.408954)"
       id="g2424"><g
         transform="matrix(1.0033516,0,0,1.0033516,-35.47395,-116.45699)"
         id="g2809"
         style="fill:#ffffff;fill-opacity:1" /><g
         style="clip-rule:evenodd;fill-rule:evenodd;image-rendering:optimizeQuality;shape-rendering:geometricPrecision;text-rendering:geometricPrecision"
         id="g328"
         transform="matrix(0.08003333,0,0,0.08003333,71.580263,140.56121)"><g
           id="g288"><path
             style="opacity:1"
             fill="#000000"
             d="m 2197.5,1957.5 c -15.3,-8.15 -30.63,-15.98 -46,-23.5 21.46,17.12 42.62,34.62 63.5,52.5 2.67,4 5.33,8 8,12 60.41,112.49 121.08,224.83 182,337 11.31,33.42 21.81,66.76 31.5,100 -105.69,-59.85 -212.02,-118.68 -319,-176.5 -80.09,-41.71 -161.42,-80.71 -244,-117 -102.84,-45.28 -208.84,-81.61 -318,-109 -30.7,-6.57 -61.36,-13.07 -92,-19.5 9.67,-41.16 16.17,-82.83 19.5,-125 6.26,-89.44 -7.07,-175.77 -40,-259 -15.04,-36.45 -35.38,-69.45 -61,-99 -21.67,-25 -48.17,-42.84 -79.5,-53.5 -37.88,-10.22 -73.21,-4.56 -106,17 -33.66,24.48 -60.49,54.98 -80.5,91.5 -40.84,79.67 -60.34,164.34 -58.5,254 -0.32,28.14 1.51,56.14 5.5,84 3.28,18.66 6.44,37.33 9.5,56 -0.79,21.29 -11.46,34.79 -32,40.5 -88.017,17.23 -174.017,41.56 -258,73 -115.29,43.47 -227.623,93.81 -337,151 -83.801,44.06 -166.801,89.4 -249,136 -29.55,11.52 -59.383,22.02 -89.5,31.5 -0.667,-1.33 -0.667,-2.67 0,-4 4,-14 8,-28 12,-42 5.667,-15 11.333,-30 17,-45 170.206,-304.4 337.873,-610.4 503,-918 80.453,-151.24 159.12,-303.57 236,-457 24.272,-49.545 48.272,-99.211 72,-149 0.414,-0.457 0.914,-0.791 1.5,-1 8.88,4.449 17.88,8.282 27,11.5 -13.601,-14.75 -16.768,-31.583 -9.5,-50.5 33.097,-70.86 65.1,-142.193 96,-214 60.25,-144.928 119.42,-290.261 177.5,-436 17.91,-0.326 35.74,0.008 53.5,1 64.23,153.131 129.56,305.797 196,458 46.6,103.435 94.93,206.102 145,308 50.49,102.472 101.82,204.47 154,306 111.06,213.12 223.39,425.46 337,637 24.19,47.05 48.36,94.05 72.5,141 z"
             id="path286" /></g><g
           id="g292"><path
             style="opacity:1"
             fill="#fefffe"
             d="m 1265.5,142.5 c 41.98,96.648 83.48,193.648 124.5,291 90.17,209.351 187.17,415.684 291,619 139.44,272.89 281.94,543.89 427.5,813 -94.75,-52.21 -195.08,-91.05 -301,-116.5 95.58,48.99 185.24,106.66 269,173 36.56,30.19 73.39,60.03 110.5,89.5 62.59,115.19 124.59,230.53 186,346 -116.98,-68.19 -236.48,-132.36 -358.5,-192.5 -106.28,-52.09 -215.61,-96.76 -328,-134 -58.73,-19.1 -118.4,-34.6 -179,-46.5 21.75,-105.86 18.25,-210.86 -10.5,-315 -16.68,-59.36 -44.34,-112.69 -83,-160 -23.23,-27.03 -51.07,-47.86 -83.5,-62.5 -55.26,-21.12 -107.59,-15.45 -157,17 -37.67,27 -67.5,60.83 -89.5,101.5 -37.66,71.65 -58.66,147.98 -63,229 -4.27,62.72 0.57,124.72 14.5,186 -0.11,0.94 -0.44,1.78 -1,2.5 -100.889,19.96 -199.222,48.63 -295,86 -113.99,44.99 -225.324,95.99 -334,153 -82.717,43.77 -164.551,88.94 -245.5,135.5 94.998,-172.98 190.331,-345.98 286,-519 130.546,-238.41 258.546,-478.41 384,-720 46.238,-90.48 91.404,-181.475 135.5,-273 0.502,-1.021 1.168,-1.188 2,-0.5 66.27,53.835 138.27,99.168 216,136 31.63,15.196 63.63,29.2 96,42 -102.49,-71.38 -196.16,-153.547 -281,-246.5 36.93,-79.861 72.76,-160.194 107.5,-241 54.06,-130.675 107.22,-261.675 159.5,-393 z"
             id="path290" /></g><g
           id="g296"><path
             style="opacity:1"
             fill="#000000"
             d="m 1325.5,1805.5 c 28.2,-2.33 48.03,9.34 59.5,35 6.03,22.04 4.03,43.37 -6,64 -8.48,17.28 -19.64,32.62 -33.5,46 16.37,17.74 30.53,37.07 42.5,58 24.85,47.11 24.52,94.11 -1,141 -10.87,18.88 -24.03,36.04 -39.5,51.5 14.43,15.68 26.27,33.18 35.5,52.5 6.9,16.07 9.23,32.73 7,50 -5.37,24.7 -20.53,39.2 -45.5,43.5 -25.71,2.15 -44.38,-8.19 -56,-31 -12,-0.5 -24,-0.67 -36,-0.5 -3.82,11 -10.82,19.5 -21,25.5 -29.84,14.23 -54.34,8.07 -73.5,-18.5 -7.08,-13.86 -9.42,-28.53 -7,-44 2.27,-17.14 8.27,-32.8 18,-47 7.79,-10.13 15.96,-19.96 24.5,-29.5 -80.54,-82.58 -81.2,-165.75 -2,-249.5 -6.31,-8.14 -12.81,-16.14 -19.5,-24 -14.68,-19.71 -22.85,-41.87 -24.5,-66.5 3.76,-38.76 25.1,-57.1 64,-55 18.7,4.04 32.03,14.7 40,32 11.35,0.83 22.68,0.67 34,-0.5 7.97,-17.63 21.3,-28.63 40,-33 z"
             id="path294" /></g><g
           id="g300"><path
             style="opacity:1"
             fill="#fefffe"
             d="m 1330.5,1842.5 c 9.84,-1 16.68,3 20.5,12 1.08,15.02 -2.26,29.02 -10,42 -4.93,8.2 -10.6,15.87 -17,23 -26.97,27.97 -54.31,55.64 -82,83 -4.33,4.83 -8.49,9.83 -12.5,15 3.67,0.33 7.33,0.67 11,1 23,-0.54 46,-1.21 69,-2 -7.49,-8.29 -14.99,-16.63 -22.5,-25 -4.19,-16.81 2.31,-24.64 19.5,-23.5 4.68,1.68 8.51,4.51 11.5,8.5 13.54,14.87 25.54,30.87 36,48 19.98,34.29 20.65,68.95 2,104 -6.89,11.55 -14.55,22.55 -23,33 -26.01,27.18 -52.51,53.85 -79.5,80 11.31,1 22.65,1.33 34,1 -3.5,-10.36 -0.83,-18.52 8,-24.5 9.53,-2.93 17.37,-0.43 23.5,7.5 13.48,14.48 24.15,30.82 32,49 2.34,8.19 3.01,16.52 2,25 -8.17,13.02 -17.84,14.36 -29,4 -2.41,-8.54 -4.91,-17.04 -7.5,-25.5 -30.67,-0.67 -61.33,-0.67 -92,0 -2.36,7.66 -4.19,15.5 -5.5,23.5 -5.57,9.35 -13.4,11.85 -23.5,7.5 -6.18,-4.36 -8.84,-10.36 -8,-18 0.82,-15.81 5.99,-29.98 15.5,-42.5 6.33,-7.33 12.67,-14.67 19,-22 30.13,-29.29 59.3,-59.29 87.5,-90 -2.27,-0.81 -4.6,-1.31 -7,-1.5 -24,-0.54 -48,-0.37 -72,0.5 -0.15,1.05 0.02,2.05 0.5,3 8.03,6.74 13.53,15.08 16.5,25 -2.24,13.13 -9.91,18.29 -23,15.5 -27.39,-23.26 -45.22,-52.43 -53.5,-87.5 -3,-19.02 -0.66,-37.36 7,-55 2.96,-6.91 6.3,-13.58 10,-20 11.83,-17.17 25.16,-33.17 40,-48 20.14,-19.14 39.97,-38.64 59.5,-58.5 -12,-0.5 -24,-0.67 -36,-0.5 4.88,12.05 1.55,20.88 -10,26.5 -5.23,0.98 -10.23,0.31 -15,-2 -16.81,-15.46 -29.64,-33.62 -38.5,-54.5 -2.28,-8.2 -2.95,-16.53 -2,-25 5.59,-11.19 14.09,-14.03 25.5,-8.5 1.88,1.54 3.38,3.38 4.5,5.5 1.98,5.85 3.31,11.85 4,18 0.79,2.4 1.96,4.57 3.5,6.5 18.92,0.34 37.25,0.51 55,0.5 12.05,-0.52 24.05,-1.35 36,-2.5 2.24,-8.54 4.74,-17.04 7.5,-25.5 2.64,-2.39 5.47,-4.39 8.5,-6 z"
             id="path298" /></g><g
           id="g304"><path
             style="opacity:1"
             fill="#000000"
             d="m 2197.5,1957.5 c 1.33,0.67 1.33,0.67 0,0 z"
             id="path302" /></g><g
           id="g308"><path
             style="opacity:1"
             fill="#000000"
             d="m 1321.5,2050.5 c 3.23,0.91 6.56,1.25 10,1 4.17,13.44 5.01,27.11 2.5,41 -0.64,3.11 -1.81,5.94 -3.5,8.5 -39.67,0.67 -79.33,0.67 -119,0 -1.6,-0.27 -3.1,-0.77 -4.5,-1.5 -5.1,-16.05 -4.6,-31.89 1.5,-47.5 37.84,-0.17 75.5,-0.67 113,-1.5 z"
             id="path306" /></g></g><text
         xml:space="preserve"
         transform="matrix(1.6333333,0,0,1.6333333,45.006744,137.44141)"
         id="text436"
         style="font-style:normal;font-variant:normal;font-weight:bold;font-stretch:normal;font-family:Arial;-inkscape-font-specification:'Arial Bold';white-space:pre;shape-inside:url(#rect438);fill:#000000" /><text
         xml:space="preserve"
         transform="matrix(1.6333333,0,0,1.6333333,25.623296,125.97895)"
         id="text442"
         style="font-style:normal;font-variant:normal;font-weight:bold;font-stretch:normal;font-size:66.6667px;font-family:Arial;-inkscape-font-specification:'Arial Bold';white-space:pre;shape-inside:url(#rect444);fill:#000000"><tspan
           x="153.20898"
           y="93.397983"
           id="tspan779"><tspan
             style="fill:#ffffff"
             id="tspan777">BioArchLinux</tspan></tspan></text></g></g></svg>

<?xml version="1.0" encoding="UTF-8"?>
<!DOCTYPE svg PUBLIC "-//W3C//DTD SVG 1.1//EN" "http://www.w3.org/Graphics/SVG/1.1/DTD/svg11.dtd">
<svg xmlns="http://www.w3.org/2000/svg" version="1.1" width="2500px" height="2500px" style="shape-rendering:geometricPrecision; text-rendering:geometricPrecision; image-rendering:optimizeQuality; fill-rule:evenodd; clip-rule:evenodd" xmlns:xlink="http://www.w3.org/1999/xlink">
<g><path style="opacity:1" fill="#000000" d="M 2197.5,1957.5 C 2182.2,1949.35 2166.87,1941.52 2151.5,1934C 2172.96,1951.12 2194.12,1968.62 2215,1986.5C 2217.67,1990.5 2220.33,1994.5 2223,1998.5C 2283.41,2110.99 2344.08,2223.33 2405,2335.5C 2416.31,2368.92 2426.81,2402.26 2436.5,2435.5C 2330.81,2375.65 2224.48,2316.82 2117.5,2259C 2037.41,2217.29 1956.08,2178.29 1873.5,2142C 1770.66,2096.72 1664.66,2060.39 1555.5,2033C 1524.8,2026.43 1494.14,2019.93 1463.5,2013.5C 1473.17,1972.34 1479.67,1930.67 1483,1888.5C 1489.26,1799.06 1475.93,1712.73 1443,1629.5C 1427.96,1593.05 1407.62,1560.05 1382,1530.5C 1360.33,1505.5 1333.83,1487.66 1302.5,1477C 1264.62,1466.78 1229.29,1472.44 1196.5,1494C 1162.84,1518.48 1136.01,1548.98 1116,1585.5C 1075.16,1665.17 1055.66,1749.84 1057.5,1839.5C 1057.18,1867.64 1059.01,1895.64 1063,1923.5C 1066.28,1942.16 1069.44,1960.83 1072.5,1979.5C 1071.71,2000.79 1061.04,2014.29 1040.5,2020C 952.483,2037.23 866.483,2061.56 782.5,2093C 667.21,2136.47 554.877,2186.81 445.5,2244C 361.699,2288.06 278.699,2333.4 196.5,2380C 166.95,2391.52 137.117,2402.02 107,2411.5C 106.333,2410.17 106.333,2408.83 107,2407.5C 111,2393.5 115,2379.5 119,2365.5C 124.667,2350.5 130.333,2335.5 136,2320.5C 306.206,2016.1 473.873,1710.1 639,1402.5C 719.453,1251.26 798.12,1098.93 875,945.5C 899.272,895.955 923.272,846.289 947,796.5C 947.414,796.043 947.914,795.709 948.5,795.5C 957.38,799.949 966.38,803.782 975.5,807C 961.899,792.25 958.732,775.417 966,756.5C 999.097,685.64 1031.1,614.307 1062,542.5C 1122.25,397.572 1181.42,252.239 1239.5,106.5C 1257.41,106.174 1275.24,106.508 1293,107.5C 1357.23,260.631 1422.56,413.297 1489,565.5C 1535.6,668.935 1583.93,771.602 1634,873.5C 1684.49,975.972 1735.82,1077.97 1788,1179.5C 1899.06,1392.62 2011.39,1604.96 2125,1816.5C 2149.19,1863.55 2173.36,1910.55 2197.5,1957.5 Z"/></g>
<g><path style="opacity:1" fill="#fefffe" d="M 1265.5,142.5 C 1307.48,239.148 1348.98,336.148 1390,433.5C 1480.17,642.851 1577.17,849.184 1681,1052.5C 1820.44,1325.39 1962.94,1596.39 2108.5,1865.5C 2013.75,1813.29 1913.42,1774.45 1807.5,1749C 1903.08,1797.99 1992.74,1855.66 2076.5,1922C 2113.06,1952.19 2149.89,1982.03 2187,2011.5C 2249.59,2126.69 2311.59,2242.03 2373,2357.5C 2256.02,2289.31 2136.52,2225.14 2014.5,2165C 1908.22,2112.91 1798.89,2068.24 1686.5,2031C 1627.77,2011.9 1568.1,1996.4 1507.5,1984.5C 1529.25,1878.64 1525.75,1773.64 1497,1669.5C 1480.32,1610.14 1452.66,1556.81 1414,1509.5C 1390.77,1482.47 1362.93,1461.64 1330.5,1447C 1275.24,1425.88 1222.91,1431.55 1173.5,1464C 1135.83,1491 1106,1524.83 1084,1565.5C 1046.34,1637.15 1025.34,1713.48 1021,1794.5C 1016.73,1857.22 1021.57,1919.22 1035.5,1980.5C 1035.39,1981.44 1035.06,1982.28 1034.5,1983C 933.611,2002.96 835.278,2031.63 739.5,2069C 625.51,2113.99 514.176,2164.99 405.5,2222C 322.783,2265.77 240.949,2310.94 160,2357.5C 254.998,2184.52 350.331,2011.52 446,1838.5C 576.546,1600.09 704.546,1360.09 830,1118.5C 876.238,1028.02 921.404,937.025 965.5,845.5C 966.002,844.479 966.668,844.312 967.5,845C 1033.77,898.835 1105.77,944.168 1183.5,981C 1215.13,996.196 1247.13,1010.2 1279.5,1023C 1177.01,951.62 1083.34,869.453 998.5,776.5C 1035.43,696.639 1071.26,616.306 1106,535.5C 1160.06,404.825 1213.22,273.825 1265.5,142.5 Z"/></g>
<g><path style="opacity:1" fill="#000000" d="M 1325.5,1805.5 C 1353.7,1803.17 1373.53,1814.84 1385,1840.5C 1391.03,1862.54 1389.03,1883.87 1379,1904.5C 1370.52,1921.78 1359.36,1937.12 1345.5,1950.5C 1361.87,1968.24 1376.03,1987.57 1388,2008.5C 1412.85,2055.61 1412.52,2102.61 1387,2149.5C 1376.13,2168.38 1362.97,2185.54 1347.5,2201C 1361.93,2216.68 1373.77,2234.18 1383,2253.5C 1389.9,2269.57 1392.23,2286.23 1390,2303.5C 1384.63,2328.2 1369.47,2342.7 1344.5,2347C 1318.79,2349.15 1300.12,2338.81 1288.5,2316C 1276.5,2315.5 1264.5,2315.33 1252.5,2315.5C 1248.68,2326.5 1241.68,2335 1231.5,2341C 1201.66,2355.23 1177.16,2349.07 1158,2322.5C 1150.92,2308.64 1148.58,2293.97 1151,2278.5C 1153.27,2261.36 1159.27,2245.7 1169,2231.5C 1176.79,2221.37 1184.96,2211.54 1193.5,2202C 1112.96,2119.42 1112.3,2036.25 1191.5,1952.5C 1185.19,1944.36 1178.69,1936.36 1172,1928.5C 1157.32,1908.79 1149.15,1886.63 1147.5,1862C 1151.26,1823.24 1172.6,1804.9 1211.5,1807C 1230.2,1811.04 1243.53,1821.7 1251.5,1839C 1262.85,1839.83 1274.18,1839.67 1285.5,1838.5C 1293.47,1820.87 1306.8,1809.87 1325.5,1805.5 Z"/></g>
<g><path style="opacity:1" fill="#fefffe" d="M 1330.5,1842.5 C 1340.34,1841.5 1347.18,1845.5 1351,1854.5C 1352.08,1869.52 1348.74,1883.52 1341,1896.5C 1336.07,1904.7 1330.4,1912.37 1324,1919.5C 1297.03,1947.47 1269.69,1975.14 1242,2002.5C 1237.67,2007.33 1233.51,2012.33 1229.5,2017.5C 1233.17,2017.83 1236.83,2018.17 1240.5,2018.5C 1263.5,2017.96 1286.5,2017.29 1309.5,2016.5C 1302.01,2008.21 1294.51,1999.87 1287,1991.5C 1282.81,1974.69 1289.31,1966.86 1306.5,1968C 1311.18,1969.68 1315.01,1972.51 1318,1976.5C 1331.54,1991.37 1343.54,2007.37 1354,2024.5C 1373.98,2058.79 1374.65,2093.45 1356,2128.5C 1349.11,2140.05 1341.45,2151.05 1333,2161.5C 1306.99,2188.68 1280.49,2215.35 1253.5,2241.5C 1264.81,2242.5 1276.15,2242.83 1287.5,2242.5C 1284,2232.14 1286.67,2223.98 1295.5,2218C 1305.03,2215.07 1312.87,2217.57 1319,2225.5C 1332.48,2239.98 1343.15,2256.32 1351,2274.5C 1353.34,2282.69 1354.01,2291.02 1353,2299.5C 1344.83,2312.52 1335.16,2313.86 1324,2303.5C 1321.59,2294.96 1319.09,2286.46 1316.5,2278C 1285.83,2277.33 1255.17,2277.33 1224.5,2278C 1222.14,2285.66 1220.31,2293.5 1219,2301.5C 1213.43,2310.85 1205.6,2313.35 1195.5,2309C 1189.32,2304.64 1186.66,2298.64 1187.5,2291C 1188.32,2275.19 1193.49,2261.02 1203,2248.5C 1209.33,2241.17 1215.67,2233.83 1222,2226.5C 1252.13,2197.21 1281.3,2167.21 1309.5,2136.5C 1307.23,2135.69 1304.9,2135.19 1302.5,2135C 1278.5,2134.46 1254.5,2134.63 1230.5,2135.5C 1230.35,2136.55 1230.52,2137.55 1231,2138.5C 1239.03,2145.24 1244.53,2153.58 1247.5,2163.5C 1245.26,2176.63 1237.59,2181.79 1224.5,2179C 1197.11,2155.74 1179.28,2126.57 1171,2091.5C 1168,2072.48 1170.34,2054.14 1178,2036.5C 1180.96,2029.59 1184.3,2022.92 1188,2016.5C 1199.83,1999.33 1213.16,1983.33 1228,1968.5C 1248.14,1949.36 1267.97,1929.86 1287.5,1910C 1275.5,1909.5 1263.5,1909.33 1251.5,1909.5C 1256.38,1921.55 1253.05,1930.38 1241.5,1936C 1236.27,1936.98 1231.27,1936.31 1226.5,1934C 1209.69,1918.54 1196.86,1900.38 1188,1879.5C 1185.72,1871.3 1185.05,1862.97 1186,1854.5C 1191.59,1843.31 1200.09,1840.47 1211.5,1846C 1213.38,1847.54 1214.88,1849.38 1216,1851.5C 1217.98,1857.35 1219.31,1863.35 1220,1869.5C 1220.79,1871.9 1221.96,1874.07 1223.5,1876C 1242.42,1876.34 1260.75,1876.51 1278.5,1876.5C 1290.55,1875.98 1302.55,1875.15 1314.5,1874C 1316.74,1865.46 1319.24,1856.96 1322,1848.5C 1324.64,1846.11 1327.47,1844.11 1330.5,1842.5 Z"/></g>
<g><path style="opacity:1" fill="#000000" d="M 2197.5,1957.5 C 2198.83,1958.17 2198.83,1958.17 2197.5,1957.5 Z"/></g>
<g><path style="opacity:1" fill="#000000" d="M 1321.5,2050.5 C 1324.73,2051.41 1328.06,2051.75 1331.5,2051.5C 1335.67,2064.94 1336.51,2078.61 1334,2092.5C 1333.36,2095.61 1332.19,2098.44 1330.5,2101C 1290.83,2101.67 1251.17,2101.67 1211.5,2101C 1209.9,2100.73 1208.4,2100.23 1207,2099.5C 1201.9,2083.45 1202.4,2067.61 1208.5,2052C 1246.34,2051.83 1284,2051.33 1321.5,2050.5 Z"/></g>
</svg>
